X:36
T:Polska ur Petter Dufvas notbok (Ma6-36)
R:Polska
O:Verkelbäck, Småland
B:Petter Dufvas notbok
S:Petter Dufva
N:Smus Ma6 bild 38
M:3/4
L:1/8
K:D
[AD]2 [AD]2[AD]2|d2 ABAG|FGABAG|FE F2D2:| |:defgfe|aA Bcdf|ed/c/ d2D2:|

